icons/edit-2-fill.svg

<svg xmlns="http://www.w3.org/2000/svg" width="24" height="24" fill="none"><g clip-path="url(#a)"><g><path fill="#121212" d="M9.243 19H21V21H3V16.757L12.9 6.85696L17.142 11.101L9.242 19H9.243ZM14.313 5.44396L16.435 3.32196C16.6225 3.13449 16.8768 3.02917 17.142 3.02917C17.4072 3.02917 17.6615 3.13449 17.849 3.32196L20.678 6.15096C20.8655 6.33849 20.9708 6.5928 20.9708 6.85796C20.9708 7.12313 20.8655 7.37743 20.678 7.56496L18.556 9.68596L14.314 5.44396H14.313Z"/></g></g><defs><clipPath id="a"><rect width="24" height="24" fill="white"/></clipPath></defs></svg>

<svg width="24" height="24" fill="none" xmlns="http://www.w3.org/2000/svg"><g clip-path="url(#a)"><path d="M9.243 19H21v2H3v-4.243l9.9-9.9 4.242 4.244L9.242 19h.001Zm5.07-13.556 2.122-2.122a1 1 0 0 1 1.414 0l2.829 2.829a1 1 0 0 1 0 1.414l-2.122 2.121-4.242-4.242h-.001Z" /></g><defs><clipPath id="a"><path fill="#fff" d="M0 0h24v24H0z"/></clipPath></defs></svg>
